src/assets/imgs/blue-grid.svg

<?xml version="1.0"?>
<svg xmlns="http://www.w3.org/2000/svg" height="512" viewBox="0 0 48 48" width="512"><g><g id="00-38-apps,-arrange,-array,-grid,-layout,-menu,-view" fill="none" fill-rule="evenodd"><path id="Shape" d="m39 25c1.5976809 0 2.9949073 1.3006635 3 3v11c0 1.5976809-1.284494 3-3 3h-11c-1.5976809 0-2.9949073-1.3016253-3-3v-11c0-1.5976809 1.2882162-3 3-3zm-19 0c1.5976809 0 2.9949073 1.3006635 3 3v11c0 1.5976809-1.284494 3-3 3h-11c-1.59768088 0-2.99490731-1.3016253-3-3v-11c0-1.5976809 1.2882162-3 3-3zm19 2h-11c-.5128358 0-1 .4163921-1 1v11c0 .5128358.4027537 1 1 1h11c.5128358 0 1-.4027433 1-1v-11c0-.5128358-.3932747-1-1-1zm-19 0h-11c-.51283584 0-1 .4163921-1 1v11c0 .5128358.40275373 1 1 1h11c.5128358 0 1-.4027433 1-1v-11c0-.5128358-.3932747-1-1-1zm19-21c1.5976809 0 2.9949073 1.30066351 3 3v11c0 1.5976809-1.284494 3-3 3h-11c-1.5976809 0-2.9949073-1.3016253-3-3v-11c0-1.59768088 1.2882162-3 3-3zm-19 0c1.5976809 0 2.9949073 1.30066351 3 3v11c0 1.5976809-1.284494 3-3 3h-11c-1.59768088 0-2.99490731-1.3016253-3-3v-11c0-1.59768088 1.2882162-3 3-3zm19 2h-11c-.5128358 0-1 .41639213-1 1v11c0 .5128358.4027537 1 1 1h11c.5128358 0 1-.4027433 1-1v-11c0-.51283584-.3932747-1-1-1zm-19 0h-11c-.51283584 0-1 .41639213-1 1v11c0 .5128358.40275373 1 1 1h11c.5128358 0 1-.4027433 1-1v-11c0-.51283584-.3932747-1-1-1z" fill="rgb(0,0,0)" fill-rule="nonzero" data-original="#000000" class="active-path" style="fill:#3366CC" data-old_color="rgb(0,0,0)"/></g></g> </svg>

<svg xmlns="http://www.w3.org/2000/svg" width="36" height="36" viewBox="0 0 36 36">
  <g id="blue-grid" transform="translate(-6 -6)">
    <g id="_00-38-apps_-arrange_-array_-grid_-layout_-menu_-view" data-name="00-38-apps,-arrange,-array,-grid,-layout,-menu,-view">
      <path id="Shape" d="M39,25a3.014,3.014,0,0,1,3,3V39a3,3,0,0,1-3,3H28a3.014,3.014,0,0,1-3-3V28a3,3,0,0,1,3-3ZM20,25a3.014,3.014,0,0,1,3,3V39a3,3,0,0,1-3,3H9a3.014,3.014,0,0,1-3-3V28a3,3,0,0,1,3-3Zm19,2H28a1,1,0,0,0-1,1V39a1,1,0,0,0,1,1H39a1,1,0,0,0,1-1V28a.99.99,0,0,0-1-1ZM20,27H9a1,1,0,0,0-1,1V39a1,1,0,0,0,1,1H20a1,1,0,0,0,1-1V28a.99.99,0,0,0-1-1ZM39,6a3.014,3.014,0,0,1,3,3V20a3,3,0,0,1-3,3H28a3.014,3.014,0,0,1-3-3V9a3,3,0,0,1,3-3ZM20,6a3.014,3.014,0,0,1,3,3V20a3,3,0,0,1-3,3H9a3.014,3.014,0,0,1-3-3V9A3,3,0,0,1,9,6ZM39,8H28a1,1,0,0,0-1,1V20a1,1,0,0,0,1,1H39a1,1,0,0,0,1-1V9a.99.99,0,0,0-1-1ZM20,8H9A1,1,0,0,0,8,9V20a1,1,0,0,0,1,1H20a1,1,0,0,0,1-1V9a.99.99,0,0,0-1-1Z" fill="#36c"/>
    </g>
  </g>
</svg>
